X:1
T: Miss McInnes of Dandaleith's Reel
C:William Marshall
R:Reel
Q: 232
K:F
M:4/4
L:1/8
|:d|cF F1/2F1/2F dc BA|GB Bc dG Bd|cF F1/2F1/2F dc BA|cf eg fF Bd|
cF F1/2F1/2F dc BA|GB Bc dG Bd|cF F1/2F1/2F dc BA|cf eg fF Bd|
cf Af cf af|eg ba gG Bd|cf Ac Bf cf|df eg fF Bd|
cf Af cf af|eg ba gG Bd|bg af ag fe|gf ed cF B:|
